Newaita-dark/apps/64/com.github.bcedu.shutdownscheduler.svg

<svg height="64pt" viewBox="0 0 64 64" width="64pt" xmlns="http://www.w3.org/2000/svg" xmlns:xlink="http://www.w3.org/1999/xlink"><linearGradient id="a"><stop offset="0" stop-opacity=".313725"/><stop offset=".222222" stop-opacity=".27451"/><stop offset="1" stop-opacity="0"/></linearGradient><radialGradient id="b" cx="450.90894" cy="189.57936" gradientTransform="matrix(.00000035 -.156265 -.281277 -.0000002 89.046304 127.190664)" gradientUnits="userSpaceOnUse" r="21.166656" xlink:href="#a"/><radialGradient id="c" cx="450.90894" cy="189.57936" gradientTransform="matrix(-.00000035 .156265 .281277 .0000002 -25.540241 -15.054962)" gradientUnits="userSpaceOnUse" r="21.166656" xlink:href="#a"/><radialGradient id="d" cx="450.90894" cy="189.57936" gradientTransform="matrix(-.00000035 -.156265 .281277 -.0000002 -25.540241 127.190664)" gradientUnits="userSpaceOnUse" r="21.166656" xlink:href="#a"/><radialGradient id="e" cx="450.90894" cy="189.57936" gradientTransform="matrix(.00000035 .156265 -.281277 .0000002 89.0463 -15.054964)" gradientUnits="userSpaceOnUse" r="21.166656" xlink:href="#a"/><linearGradient id="f" gradientTransform="matrix(.0267201 0 0 .125012 24.930772 26.877567)" gradientUnits="userSpaceOnUse" x1="255.32306" x2="255.32304" y1="233.5" y2="254.66666"><stop offset="0" stop-opacity=".27451"/><stop offset="1" stop-opacity="0"/></linearGradient><linearGradient id="g" gradientUnits="userSpaceOnUse" x1="254" x2="254" y1="-168.66667" y2="233.5"><stop offset="0" stop-color="#616161"/><stop offset="1" stop-color="#424242"/></linearGradient><linearGradient id="h" gradientUnits="userSpaceOnUse" x1="31.753056" x2="31.753056" y1="56.06789909502" y2="5.79222477969"><stop offset="0" stop-color="#bdbdbd"/><stop offset="1" stop-color="#e0e0e0"/></linearGradient><path d="m36.382812 56.066406h5.292969v-2.644531h-5.292969zm0 0" fill="url(#b)"/><path d="m27.121094 56.066406h-5.289063v2.648438h5.289063zm0 0" fill="url(#c)"/><path d="m27.121094 56.066406h-5.289063v-2.644531h5.289063zm0 0" fill="url(#d)"/><path d="m36.382812 56.066406h5.292969v2.648438h-5.292969zm0 0" fill="url(#e)"/><path d="m27.121094 55.40625h9.261718v3.308594h-9.261718zm0 0" fill="url(#f)"/><path d="m254.006994-168.660675c111.051895 0 201.074548 90.022653 201.074548 201.074548s-90.022653 201.074548-201.074548 201.074548c-111.051896 0-201.105796-90.022653-201.105796-201.074548s90.0539-201.074548 201.105796-201.074548zm0 0" fill="url(#g)" stroke="#333" stroke-linecap="round" stroke-width="3" transform="matrix(.125012 0 0 .125012 0 26.877566)"/><path d="m31.753906 56.066406c-13.925781 0-25.140625-11.210937-25.140625-25.136718 0-.082032.003907-.164063.003907-.246094.128906 13.8125 11.292968 24.890625 25.136718 24.890625s25.003906-11.078125 25.136719-24.890625v.246094c0 13.925781-11.210937 25.136718-25.136719 25.136718zm0 0" fill-opacity=".196078"/><path d="m31.753906 5.792969c-13.925781 0-25.140625 11.210937-25.140625 25.136719 0 .082031.003907.164062.003907.246093.128906-13.8125 11.292968-24.890625 25.136718-24.890625s25.003906 11.078125 25.136719 24.890625c0-.082031 0-.164062 0-.246093 0-13.925782-11.210937-25.136719-25.136719-25.136719zm0 0" fill="#fff" fill-opacity=".392157"/><path d="m31.753906 5.605469c-14.027344 0-25.328125 11.296875-25.328125 25.324219 0 14.027343 11.300781 25.324218 25.328125 25.324218s25.324219-11.296875 25.324219-25.324218c0-14.027344-11.296875-25.324219-25.324219-25.324219zm0 .375c13.824219 0 24.949219 11.125 24.949219 24.949219 0 13.824218-11.125 24.949218-24.949219 24.949218-13.828125 0-24.953125-11.125-24.953125-24.949218 0-13.824219 11.125-24.949219 24.953125-24.949219zm0 0" fill="#212121"/><path d="m31.734375 16.359375c-.730469.011719-1.3125.609375-1.300781 1.339844v13.230469c0 .730468.589844 1.320312 1.320312 1.320312h9.261719c.476563.007812.917969-.242188 1.160156-.652344.242188-.414062.242188-.921875 0-1.335937-.242187-.410157-.683593-.660157-1.160156-.652344h-7.941406v-11.910156c.003906-.355469-.136719-.699219-.386719-.953125-.253906-.253906-.597656-.390625-.953125-.386719zm7.589844.835937c-.585938.019532-1.089844.421876-1.234375.988282-.144532.570312.101562 1.167968.605468 1.464844 3.777344 2.324218 6.289063 6.484374 6.289063 11.28125 0 7.355468-5.878906 13.234374-13.230469 13.234374-7.355468 0-13.234375-5.878906-13.234375-13.234374 0-4.796876 2.511719-8.957032 6.292969-11.28125.507812-.300782.753906-.910157.597656-1.480469-.15625-.574219-.675781-.972657-1.269531-.972657-.253906-.003906-.5.070313-.714844.203126-4.535156 2.789062-7.546875 7.808593-7.546875 13.53125 0 8.773437 7.101563 15.875 15.875 15.875 8.769532 0 15.875-7.101563 15.875-15.875 0-5.722657-3.011718-10.742188-7.550781-13.53125-.222656-.140626-.484375-.214844-.753906-.203126zm0 0" fill="url(#h)"/><path d="m31.734375 16.359375c-.730469.011719-1.3125.609375-1.300781 1.339844v.835937c-.011719-.726562.570312-1.328125 1.300781-1.339844.355469-.003906.699219.136719.953125.386719.25.253907.390625.597657.386719.953125v-.835937c.003906-.355469-.136719-.699219-.386719-.953125-.253906-.253906-.597656-.390625-.953125-.386719zm7.589844.835937c-.414063.011719-.800781.222657-1.039063.5625-.234375.34375-.296875.777344-.167968 1.171876.175781-.523438.65625-.878907 1.207031-.898438.269531-.007812.53125.0625.753906.203125 4.429687 2.722656 7.402344 7.570313 7.542969 13.121094.003906-.140625.007812-.28125.007812-.425781 0-5.722657-3.011718-10.742188-7.550781-13.53125-.222656-.140626-.484375-.214844-.753906-.203126zm-15.183594 0c-.253906-.003906-.5.070313-.714844.203126-4.535156 2.789062-7.546875 7.808593-7.546875 13.53125 0 .144531 0 .285156.003906.425781.140626-5.550781 3.117188-10.398438 7.542969-13.121094.214844-.132813.460938-.203125.714844-.203125.566406.003906 1.066406.367188 1.246094.902344.132812-.402344.066406-.84375-.179688-1.1875-.246093-.34375-.640625-.550782-1.066406-.550782zm8.933594 12.414063v.835937h7.941406c.574219-.007812 1.089844.355469 1.269531.902344.136719-.40625.066406-.851562-.1875-1.199218-.25-.34375-.65625-.546876-1.082031-.539063zm-14.546875 1.738281c-.003906.140625-.007813.277344-.007813.417969 0 7.355469 5.878907 13.234375 13.234375 13.234375 7.351563 0 13.230469-5.878906 13.230469-13.234375 0-.140625 0-.277344-.003906-.417969-.21875 7.15625-6.011719 12.816406-13.226563 12.816406s-13.007812-5.660156-13.226562-12.816406zm0 0" fill="#fff"/><path d="m38.226562 19.171875c-.363281.625-.152343 1.429687.46875 1.800781 3.605469 2.214844 6.054688 6.101563 6.273438 10.617188.011719-.21875.015625-.441406.015625-.660156 0-4.796876-2.511719-8.957032-6.289063-11.28125-.195312-.117188-.355468-.28125-.46875-.476563zm-12.949218.003906c-.113282.195313-.273438.355469-.464844.472657-3.78125 2.324218-6.292969 6.484374-6.292969 11.28125 0 .21875.007813.441406.015625.660156.21875-4.515625 2.671875-8.402344 6.277344-10.617188.617188-.371094.824219-1.171875.464844-1.796875zm5.15625 11.753907v1.320312c0 .730469.589844 1.320312 1.320312 1.320312h9.261719c.472656.007813.917969-.242187 1.15625-.652343.242187-.410157.242187-.917969.003906-1.328125-.238281.414062-.683593.664062-1.160156.660156h-9.261719c-.730468 0-1.320312-.59375-1.320312-1.320312zm-14.542969.664062c-.007813.21875-.011719.4375-.011719.65625 0 8.773438 7.101563 15.875 15.875 15.875 8.769532 0 15.875-7.101562 15.875-15.875 0-.21875-.007812-.4375-.015625-.65625-.347656 8.460938-7.3125 15.207031-15.859375 15.207031-8.550781 0-15.511718-6.746093-15.863281-15.207031zm0 0" fill-opacity=".235294"/><path d="m959.43595 494.598444c-22.084506.354297-39.681251 18.423437-39.326954 40.507943v400.001177c0 22.084505 17.832943 39.917448 39.917448 39.917448h280.012634c14.408073.236198 27.753256-7.322135 35.075391-19.722526 7.322136-12.51849 7.322136-27.871355 0-40.389844-7.322135-12.400391-20.667318-19.958724-35.075391-19.722527h-240.095185v-360.083728c.118099-10.747005-4.133464-21.139714-11.691797-28.816146-7.676433-7.676433-18.069141-11.809896-28.816146-11.691797zm229.466279 25.273177c-17.714844.590495-32.94961 12.754688-37.319272 29.879037-4.369661 17.242448 3.070573 35.311589 18.305339 44.28711 114.201694 70.268881 190.139325 196.044273 190.139325 341.069796 0 222.380341-177.738934 400.119276-400.001177 400.119276-222.380341 0-400.119275-177.738935-400.119275-400.119276 0-145.025523 75.937631-270.800915 190.257424-341.069796 15.352865-9.09362 22.793099-27.517058 18.069141-44.759506-4.723959-17.360547-20.43112-29.406641-38.382162-29.406641-7.676433-.118099-15.116667 2.125781-21.61211 6.141146-137.112892 84.322657-228.16719 236.079821-228.16719 409.094797 0 265.250264 214.703909 479.954173 479.954172 479.954173 265.132165 0 479.954173-214.703909 479.954173-479.954173 0-173.014976-91.054298-324.77214-228.285289-409.094797-6.731641-4.251563-14.644271-6.495443-22.793099-6.141146zm0 0" fill="none" stroke="#212121" stroke-linecap="round" stroke-linejoin="round" stroke-width="11.338583" transform="scale(.0330761)"/></svg>

<?xml version="1.0" encoding="UTF-8"?>
<svg xmlns="http://www.w3.org/2000/svg" xmlns:xlink="http://www.w3.org/1999/xlink" width="64pt" height="64pt" viewBox="0 0 64 64" version="1.1">
<defs>
<radialGradient id="radial0" gradientUnits="userSpaceOnUse" cx="450.90894" cy="189.57936" fx="450.90894" fy="189.57936" r="21.166656" gradientTransform="matrix(0.000000348341,-0.156265,-0.281277,-0.000000203077,89.046304,127.190664)">
<stop offset="0" style="stop-color:rgb(0%,0%,0%);stop-opacity:0.313725;"/>
<stop offset="0.222222" style="stop-color:rgb(0%,0%,0%);stop-opacity:0.27451;"/>
<stop offset="1" style="stop-color:rgb(0%,0%,0%);stop-opacity:0;"/>
</radialGradient>
<radialGradient id="radial1" gradientUnits="userSpaceOnUse" cx="450.90894" cy="189.57936" fx="450.90894" fy="189.57936" r="21.166656" gradientTransform="matrix(-0.000000348341,0.156265,0.281277,0.000000203077,-25.540241,-15.054962)">
<stop offset="0" style="stop-color:rgb(0%,0%,0%);stop-opacity:0.313725;"/>
<stop offset="0.222222" style="stop-color:rgb(0%,0%,0%);stop-opacity:0.27451;"/>
<stop offset="1" style="stop-color:rgb(0%,0%,0%);stop-opacity:0;"/>
</radialGradient>
<radialGradient id="radial2" gradientUnits="userSpaceOnUse" cx="450.90894" cy="189.57936" fx="450.90894" fy="189.57936" r="21.166656" gradientTransform="matrix(-0.000000348341,-0.156265,0.281277,-0.000000203077,-25.540241,127.190664)">
<stop offset="0" style="stop-color:rgb(0%,0%,0%);stop-opacity:0.313725;"/>
<stop offset="0.222222" style="stop-color:rgb(0%,0%,0%);stop-opacity:0.27451;"/>
<stop offset="1" style="stop-color:rgb(0%,0%,0%);stop-opacity:0;"/>
</radialGradient>
<radialGradient id="radial3" gradientUnits="userSpaceOnUse" cx="450.90894" cy="189.57936" fx="450.90894" fy="189.57936" r="21.166656" gradientTransform="matrix(0.000000348341,0.156265,-0.281277,0.000000203077,89.0463,-15.054964)">
<stop offset="0" style="stop-color:rgb(0%,0%,0%);stop-opacity:0.313725;"/>
<stop offset="0.222222" style="stop-color:rgb(0%,0%,0%);stop-opacity:0.27451;"/>
<stop offset="1" style="stop-color:rgb(0%,0%,0%);stop-opacity:0;"/>
</radialGradient>
<linearGradient id="linear0" gradientUnits="userSpaceOnUse" x1="255.32306" y1="233.5" x2="255.32304" y2="254.66666" gradientTransform="matrix(0.0267201,0,0,0.125012,24.930772,26.877567)">
<stop offset="0" style="stop-color:rgb(0%,0%,0%);stop-opacity:0.27451;"/>
<stop offset="1" style="stop-color:rgb(0%,0%,0%);stop-opacity:0;"/>
</linearGradient>
<linearGradient id="linear1" gradientUnits="userSpaceOnUse" x1="254" y1="-168.66667" x2="254" y2="233.5" >
<stop offset="0" style="stop-color:rgb(38.039216%,38.039216%,38.039216%);stop-opacity:1;"/>
<stop offset="1" style="stop-color:rgb(25.882353%,25.882353%,25.882353%);stop-opacity:1;"/>
</linearGradient>
<linearGradient id="linear2" gradientUnits="userSpaceOnUse" x1="960" y1="1695.1182" x2="960" y2="175.11813" gradientTransform="matrix(0.0330761,0,0,0.0330761,0,0)">
<stop offset="0" style="stop-color:rgb(74.117647%,74.117647%,74.117647%);stop-opacity:1;"/>
<stop offset="1" style="stop-color:rgb(87.843137%,87.843137%,87.843137%);stop-opacity:1;"/>
</linearGradient>
</defs>
<g id="surface1">
<path style=" stroke:none;fill-rule:nonzero;fill:url(#radial0);" d="M 36.382812 56.066406 L 41.675781 56.066406 L 41.675781 53.421875 L 36.382812 53.421875 Z M 36.382812 56.066406 "/>
<path style=" stroke:none;fill-rule:nonzero;fill:url(#radial1);" d="M 27.121094 56.066406 L 21.832031 56.066406 L 21.832031 58.714844 L 27.121094 58.714844 Z M 27.121094 56.066406 "/>
<path style=" stroke:none;fill-rule:nonzero;fill:url(#radial2);" d="M 27.121094 56.066406 L 21.832031 56.066406 L 21.832031 53.421875 L 27.121094 53.421875 Z M 27.121094 56.066406 "/>
<path style=" stroke:none;fill-rule:nonzero;fill:url(#radial3);" d="M 36.382812 56.066406 L 41.675781 56.066406 L 41.675781 58.714844 L 36.382812 58.714844 Z M 36.382812 56.066406 "/>
<path style=" stroke:none;fill-rule:nonzero;fill:url(#linear0);" d="M 27.121094 55.40625 L 36.382812 55.40625 L 36.382812 58.714844 L 27.121094 58.714844 Z M 27.121094 55.40625 "/>
<path style="fill-rule:nonzero;fill:url(#linear1);stroke-width:3;stroke-linecap:round;stroke-linejoin:miter;stroke:rgb(20%,20%,20%);stroke-opacity:1;stroke-miterlimit:4;" d="M 254.006994 -168.660675 C 365.058889 -168.660675 455.081542 -78.638022 455.081542 32.413873 C 455.081542 143.465768 365.058889 233.488421 254.006994 233.488421 C 142.955098 233.488421 52.901198 143.465768 52.901198 32.413873 C 52.901198 -78.638022 142.955098 -168.660675 254.006994 -168.660675 Z M 254.006994 -168.660675 " transform="matrix(0.125012,0,0,0.125012,0,26.877566)"/>
<path style=" stroke:none;fill-rule:nonzero;fill:rgb(0%,0%,0%);fill-opacity:0.196078;" d="M 31.753906 56.066406 C 17.828125 56.066406 6.613281 44.855469 6.613281 30.929688 C 6.613281 30.847656 6.617188 30.765625 6.617188 30.683594 C 6.746094 44.496094 17.910156 55.574219 31.753906 55.574219 C 45.597656 55.574219 56.757812 44.496094 56.890625 30.683594 C 56.890625 30.765625 56.890625 30.847656 56.890625 30.929688 C 56.890625 44.855469 45.679688 56.066406 31.753906 56.066406 Z M 31.753906 56.066406 "/>
<path style=" stroke:none;fill-rule:nonzero;fill:rgb(100%,100%,100%);fill-opacity:0.392157;" d="M 31.753906 5.792969 C 17.828125 5.792969 6.613281 17.003906 6.613281 30.929688 C 6.613281 31.011719 6.617188 31.09375 6.617188 31.175781 C 6.746094 17.363281 17.910156 6.285156 31.753906 6.285156 C 45.597656 6.285156 56.757812 17.363281 56.890625 31.175781 C 56.890625 31.09375 56.890625 31.011719 56.890625 30.929688 C 56.890625 17.003906 45.679688 5.792969 31.753906 5.792969 Z M 31.753906 5.792969 "/>
<path style=" stroke:none;fill-rule:nonzero;fill:rgb(12.941176%,12.941176%,12.941176%);fill-opacity:1;" d="M 31.753906 5.605469 C 17.726562 5.605469 6.425781 16.902344 6.425781 30.929688 C 6.425781 44.957031 17.726562 56.253906 31.753906 56.253906 C 45.78125 56.253906 57.078125 44.957031 57.078125 30.929688 C 57.078125 16.902344 45.78125 5.605469 31.753906 5.605469 Z M 31.753906 5.980469 C 45.578125 5.980469 56.703125 17.105469 56.703125 30.929688 C 56.703125 44.753906 45.578125 55.878906 31.753906 55.878906 C 17.925781 55.878906 6.800781 44.753906 6.800781 30.929688 C 6.800781 17.105469 17.925781 5.980469 31.753906 5.980469 Z M 31.753906 5.980469 "/>
<path style=" stroke:none;fill-rule:nonzero;fill:url(#linear2);" d="M 31.734375 16.359375 C 31.003906 16.371094 30.421875 16.96875 30.433594 17.699219 L 30.433594 30.929688 C 30.433594 31.660156 31.023438 32.25 31.753906 32.25 L 41.015625 32.25 C 41.492188 32.257812 41.933594 32.007812 42.175781 31.597656 C 42.417969 31.183594 42.417969 30.675781 42.175781 30.261719 C 41.933594 29.851562 41.492188 29.601562 41.015625 29.609375 L 33.074219 29.609375 L 33.074219 17.699219 C 33.078125 17.34375 32.9375 17 32.6875 16.746094 C 32.433594 16.492188 32.089844 16.355469 31.734375 16.359375 Z M 39.324219 17.195312 C 38.738281 17.214844 38.234375 17.617188 38.089844 18.183594 C 37.945312 18.753906 38.191406 19.351562 38.695312 19.648438 C 42.472656 21.972656 44.984375 26.132812 44.984375 30.929688 C 44.984375 38.285156 39.105469 44.164062 31.753906 44.164062 C 24.398438 44.164062 18.519531 38.285156 18.519531 30.929688 C 18.519531 26.132812 21.03125 21.972656 24.8125 19.648438 C 25.320312 19.347656 25.566406 18.738281 25.410156 18.167969 C 25.253906 17.59375 24.734375 17.195312 24.140625 17.195312 C 23.886719 17.191406 23.640625 17.265625 23.425781 17.398438 C 18.890625 20.1875 15.878906 25.207031 15.878906 30.929688 C 15.878906 39.703125 22.980469 46.804688 31.753906 46.804688 C 40.523438 46.804688 47.628906 39.703125 47.628906 30.929688 C 47.628906 25.207031 44.617188 20.1875 40.078125 17.398438 C 39.855469 17.257812 39.59375 17.183594 39.324219 17.195312 Z M 39.324219 17.195312 "/>
<path style=" stroke:none;fill-rule:nonzero;fill:rgb(100%,100%,100%);fill-opacity:1;" d="M 31.734375 16.359375 C 31.003906 16.371094 30.421875 16.96875 30.433594 17.699219 L 30.433594 18.535156 C 30.421875 17.808594 31.003906 17.207031 31.734375 17.195312 C 32.089844 17.191406 32.433594 17.332031 32.6875 17.582031 C 32.9375 17.835938 33.078125 18.179688 33.074219 18.535156 L 33.074219 17.699219 C 33.078125 17.34375 32.9375 17 32.6875 16.746094 C 32.433594 16.492188 32.089844 16.355469 31.734375 16.359375 Z M 39.324219 17.195312 C 38.910156 17.207031 38.523438 17.417969 38.285156 17.757812 C 38.050781 18.101562 37.988281 18.535156 38.117188 18.929688 C 38.292969 18.40625 38.773438 18.050781 39.324219 18.03125 C 39.59375 18.023438 39.855469 18.09375 40.078125 18.234375 C 44.507812 20.957031 47.480469 25.804688 47.621094 31.355469 C 47.625 31.214844 47.628906 31.074219 47.628906 30.929688 C 47.628906 25.207031 44.617188 20.1875 40.078125 17.398438 C 39.855469 17.257812 39.59375 17.183594 39.324219 17.195312 Z M 24.140625 17.195312 C 23.886719 17.191406 23.640625 17.265625 23.425781 17.398438 C 18.890625 20.1875 15.878906 25.207031 15.878906 30.929688 C 15.878906 31.074219 15.878906 31.214844 15.882812 31.355469 C 16.023438 25.804688 19 20.957031 23.425781 18.234375 C 23.640625 18.101562 23.886719 18.03125 24.140625 18.03125 C 24.707031 18.035156 25.207031 18.398438 25.386719 18.933594 C 25.519531 18.53125 25.453125 18.089844 25.207031 17.746094 C 24.960938 17.402344 24.566406 17.195312 24.140625 17.195312 Z M 33.074219 29.609375 L 33.074219 30.445312 L 41.015625 30.445312 C 41.589844 30.4375 42.105469 30.800781 42.285156 31.347656 C 42.421875 30.941406 42.351562 30.496094 42.097656 30.148438 C 41.847656 29.804688 41.441406 29.601562 41.015625 29.609375 Z M 18.527344 31.347656 C 18.523438 31.488281 18.519531 31.625 18.519531 31.765625 C 18.519531 39.121094 24.398438 45 31.753906 45 C 39.105469 45 44.984375 39.121094 44.984375 31.765625 C 44.984375 31.625 44.984375 31.488281 44.980469 31.347656 C 44.761719 38.503906 38.96875 44.164062 31.753906 44.164062 C 24.539062 44.164062 18.746094 38.503906 18.527344 31.347656 Z M 18.527344 31.347656 "/>
<path style=" stroke:none;fill-rule:nonzero;fill:rgb(0%,0%,0%);fill-opacity:0.235294;" d="M 38.226562 19.171875 C 37.863281 19.796875 38.074219 20.601562 38.695312 20.972656 C 42.300781 23.1875 44.75 27.074219 44.96875 31.589844 C 44.980469 31.371094 44.984375 31.148438 44.984375 30.929688 C 44.984375 26.132812 42.472656 21.972656 38.695312 19.648438 C 38.5 19.53125 38.339844 19.367188 38.226562 19.171875 Z M 25.277344 19.175781 C 25.164062 19.371094 25.003906 19.53125 24.8125 19.648438 C 21.03125 21.972656 18.519531 26.132812 18.519531 30.929688 C 18.519531 31.148438 18.527344 31.371094 18.535156 31.589844 C 18.753906 27.074219 21.207031 23.1875 24.8125 20.972656 C 25.429688 20.601562 25.636719 19.800781 25.277344 19.175781 Z M 30.433594 30.929688 L 30.433594 32.25 C 30.433594 32.980469 31.023438 33.570312 31.753906 33.570312 L 41.015625 33.570312 C 41.488281 33.578125 41.933594 33.328125 42.171875 32.917969 C 42.414062 32.507812 42.414062 32 42.175781 31.589844 C 41.9375 32.003906 41.492188 32.253906 41.015625 32.25 L 31.753906 32.25 C 31.023438 32.25 30.433594 31.65625 30.433594 30.929688 Z M 15.890625 31.59375 C 15.882812 31.8125 15.878906 32.03125 15.878906 32.25 C 15.878906 41.023438 22.980469 48.125 31.753906 48.125 C 40.523438 48.125 47.628906 41.023438 47.628906 32.25 C 47.628906 32.03125 47.621094 31.8125 47.613281 31.59375 C 47.265625 40.054688 40.300781 46.800781 31.753906 46.800781 C 23.203125 46.800781 16.242188 40.054688 15.890625 31.59375 Z M 15.890625 31.59375 "/>
<path style="fill:none;stroke-width:11.338583;stroke-linecap:round;stroke-linejoin:round;stroke:rgb(12.941176%,12.941176%,12.941176%);stroke-opacity:1;stroke-miterlimit:4;" d="M 959.43595 494.598444 C 937.351444 494.952741 919.754699 513.021881 920.108996 535.106387 L 920.108996 935.107564 C 920.108996 957.192069 937.941939 975.025012 960.026444 975.025012 L 1240.039078 975.025012 C 1254.447151 975.26121 1267.792334 967.702877 1275.114469 955.302486 C 1282.436605 942.783996 1282.436605 927.431131 1275.114469 914.912642 C 1267.792334 902.512251 1254.447151 894.953918 1240.039078 895.190115 L 999.943893 895.190115 L 999.943893 535.106387 C 1000.061992 524.359382 995.810429 513.966673 988.252096 506.290241 C 980.575663 498.613808 970.182955 494.480345 959.43595 494.598444 Z M 1188.902229 519.871621 C 1171.187385 520.462116 1155.952619 532.626309 1151.582957 549.750658 C 1147.213296 566.993106 1154.65353 585.062247 1169.888296 594.037768 C 1284.08999 664.306649 1360.027621 790.082041 1360.027621 935.107564 C 1360.027621 1157.487905 1182.288687 1335.22684 960.026444 1335.22684 C 737.646103 1335.22684 559.907169 1157.487905 559.907169 935.107564 C 559.907169 790.082041 635.8448 664.306649 750.164593 594.037768 C 765.517458 584.944148 772.957692 566.52071 768.233734 549.278262 C 763.509775 531.917715 747.802614 519.871621 729.851572 519.871621 C 722.175139 519.753522 714.734905 521.997402 708.239462 526.012767 C 571.12657 610.335424 480.072272 762.092588 480.072272 935.107564 C 480.072272 1200.357828 694.776181 1415.061737 960.026444 1415.061737 C 1225.158609 1415.061737 1439.980617 1200.357828 1439.980617 935.107564 C 1439.980617 762.092588 1348.926319 610.335424 1211.695328 526.012767 C 1204.963687 521.761204 1197.051057 519.517324 1188.902229 519.871621 Z M 1188.902229 519.871621 " transform="matrix(0.0330761,0,0,0.0330761,0,0)"/>
</g>
</svg>
